img/contacts/mail.svg

<svg width="26" height="26" viewBox="0 0 26 26" fill="none" xmlns="http://www.w3.org/2000/svg">
<g id="icon/mail">
<path id="icon/mail_2" d="M24.818 6.56592V19.4346C24.818 20.4499 24.0621 21.273 23.1297 21.273H2.86995C1.93752 21.273 1.18164 20.4499 1.18164 19.4346V6.56592M24.818 6.56592C24.818 5.55061 24.0621 4.72754 23.1297 4.72754H2.86995C1.93752 4.72754 1.18164 5.55061 1.18164 6.56592M24.818 6.56592L15.1973 15.5452C13.9328 16.7254 12.0669 16.7254 10.8024 15.5452L1.18164 6.56592" stroke="#2D383F" stroke-linecap="round" stroke-linejoin="round"/>
</g>
</svg>

<svg width="26" height="26" fill="none" xmlns="http://www.w3.org/2000/svg"><path d="M24.818 6.566v12.869c0 1.015-.756 1.838-1.688 1.838H2.87c-.932 0-1.688-.823-1.688-1.838V6.565m23.636 0c0-1.014-.756-1.837-1.688-1.837H2.87c-.932 0-1.688.823-1.688 1.838m23.636 0-9.62 8.98c-1.265 1.18-3.131 1.18-4.396 0l-9.62-8.98" stroke="#2D383F" stroke-linecap="round" stroke-linejoin="round"/></svg>
